src/lib/packages/icons/src/assets/line/bolt-square-alt.svg

<svg xmlns="http://www.w3.org/2000/svg" width="24" height="24" fill="none"><path fill="currentColor" d="M17.625 2.25H6.375c-2.66 0-4.125 1.465-4.125 4.125v11.25c0 2.66 1.465 4.125 4.125 4.125h11.25c2.66 0 4.125-1.465 4.125-4.125V6.375c0-2.66-1.465-4.125-4.125-4.125Zm2.625 15.375c0 1.84-.785 2.625-2.625 2.625H6.375c-1.84 0-2.625-.785-2.625-2.625V6.375c0-1.84.785-2.625 2.625-2.625h11.25c1.84 0 2.625.785 2.625 2.625v11.25Zm-3.973-6.986h-2.305V6.5a.749.749 0 0 0-1.307-.502l-5.5 6.111a.751.751 0 0 0 .558 1.252h2.305V17.5a.749.749 0 0 0 1.308.502l5.5-6.111a.751.751 0 0 0-.559-1.252Zm-4.75 4.907v-2.935a.75.75 0 0 0-.75-.75H9.406l3.066-3.407v2.935c0 .415.336.75.75.75h1.371l-3.066 3.407Z"/></svg>

<svg width="24" height="24" viewBox="0 0 24 24" fill="none" xmlns="http://www.w3.org/2000/svg">
<path d="M17.625 2.25H6.375C3.715 2.25 2.25 3.715 2.25 6.375V17.625C2.25 20.285 3.715 21.75 6.375 21.75H17.625C20.285 21.75 21.75 20.285 21.75 17.625V6.375C21.75 3.715 20.285 2.25 17.625 2.25ZM20.25 17.625C20.25 19.465 19.465 20.25 17.625 20.25H6.375C4.535 20.25 3.75 19.465 3.75 17.625V6.375C3.75 4.535 4.535 3.75 6.375 3.75H17.625C19.465 3.75 20.25 4.535 20.25 6.375V17.625ZM16.277 10.639H13.972V6.5C13.972 6.189 13.781 5.911 13.491 5.8C13.202 5.688 12.873 5.768 12.665 5.998L7.16498 12.109C6.96698 12.329 6.91699 12.645 7.03699 12.916C7.15799 13.187 7.42702 13.361 7.72302 13.361H10.028V17.5C10.028 17.811 10.219 18.089 10.509 18.2C10.596 18.234 10.688 18.25 10.778 18.25C10.986 18.25 11.19 18.163 11.336 18.002L16.836 11.891C17.034 11.671 17.084 11.355 16.964 11.084C16.842 10.813 16.573 10.639 16.277 10.639ZM11.527 15.546V12.611C11.527 12.196 11.191 11.861 10.777 11.861H9.40601L12.472 8.45399V11.389C12.472 11.804 12.808 12.139 13.222 12.139H14.593L11.527 15.546Z" fill="currentColor"/>
</svg>
